X:1
T:Jesus Christus unser Heiland
T:Balthasar Resinarius
T:Source : DDT 34---Leipzig---Breitkopf & Härtel---J.Wolf---1908. First print : Newe Deudsche Geistliche Gesenge---Wittemberg---G.Rhau---1544. Editor : André Vierendeels (01/08/17).
T:Notes : Original clefs : C1, C3, C3 F4 Original note values have been halved Editorial accidentals above the staff
T:Jesus Christus unser Heiland, der von uns
T:©
T:©
C:Balthasar Resinarius
Z:©
%%score [ 1 [ 2 3 ] 4 ]
L:1/8
Q:1/4=120
M:2/2
K:F
V:1 treble nm="Soprano" snm="S"
V:2 treble-8 nm="Tenor 1" snm="T 1"
V:3 treble-8 nm="Tenor 2" snm="T 2"
V:4 bass nm="Bass" snm="B"
V:1
 G4 A4 | B2 A2 B2 G2 | F2 A2 G G2 F | G8 | B2 G2 F2 D2 | F2 G2 A2 G2 | FG A2 D G2 F | G8 | %8
w: Je- sus|Chri- * * stus,|un- * ser Hei- *|land,|der von uns den|Got- * * tes|zorn _ _ _ _ _|_|
 F2 FF D2 G2 | F2 G4 A2- | AF B3 A AG | B8 | A2 B2 A2 d2- | dcBA G2 A2 | FG A2 D G2 F | G8 |] %16
w: wand, durch das bit- ter|Lei- * *|* * * * den _|sein|half er uns aus|_ _ _ _ _ der|Höl- * * * * len|Pein.|
V:2
 d4 f4 | de f2 g2 g2 | c2 f2 d4 | BABc d4 | d2 d2 d2 d2 | d3 e f2 c2 | f4 d4 | B2 _e3 dBc | %8
w: Je- sus|Chri- * * * stus,|un- ser Hei-|* * * * land,|der von ons den|Got- * * tes|zorn _|_ _ _ _ _|
 d2 dd d2 c2 |"^b" d2 B2 e2 c2 | f4 f2 f2 | d3 c BA G2 | A2 G2 A2 d2- | d4 e2 c2 | f4 d2 d2 | d8 |] %16
w: wand, durch das bit- ter|Lei- * * *|* den sein,|half _ _ _ _|_ er uns aus|_ _ der|Höl- * len|Pein.|
V:3
 G4 d4 | B2 c2 d2 G2 | A2 c2 B2 A2 | G8 | G2 B2 A2 B2 | A2 B2 c4 | d2 c2 B2 A2 | G8 | B2 B2 B2 G2 | %9
w: Je- sus|Chri- * * stus|un- * ser Hei-|land,|der von uns den|Got- * tes|zorn _ _ _|wand,|durch das bit- ter|
 B4 c4 | d3 B c2 c2 | B8 | f2 g2 f2 d2 | B4 c4 | d2 c2 B2 A2 | G8 |] %16
w: Lei- *||sein,|half er uns aus|_ der|Höl- * * len|Pein.|
V:4
 G,4 D,4 | G,2 F,2 G,2 E,2 | F,2 F,2 G,2 D,2 | D3 C B,3 A, | G,2 G,2 D,2 G,2 | D,2 G,2 F,2 E,2 | %6
w: Je- sus|Chri- * * stus,|un- * * ser|Hei- * land, _|der von uns den|Got- * * tes|
 D,E, F,2 G,2 D,2 |"^b""^b" E,2 C,3 D, E,2 | B,,2 B,,B,, B,,2 E,2 |"^#""^b""^b" D,2 E,2 C,2 F,2 | %10
w: zo- * * * ren|wand _ _ _|_ durch das bit- ter|Lei- * * *|
 B,,3 B,, F,2 F,2 |"^b" B,,2 B,A, G,F, E,2 | D,2 G,2 D,2 D,2 | G,4 C,2 F,2 | D,E, F,2 G,2 D,2 | %15
w: * den sein, half|er half _ _ _ _|_ er uns aus|_ _ der|Höl- * * * len|
 G,8 |] %16
w: Pein.|

